X: 40
T: Hey, Diddle, Diddle
C: Elliott
Q: "Allegro."
%R: air, jig
B: "The Everyday Song Book", 1927
F: http://www.library.pitt.edu/happybirthday/pdf/The_Everyday_Song_Book.pdf
Z: 2017 John Chambers <jc:trillian.mit.edu>
M: 6/8
L: 1/8
K: G
% - - - - - - - - - - - - - - -
[| B B B B c d | A A A A G A |
w: Hey, did-dle, did-dle, The cat and the fid-dle, The
%
   B2 B B c d | A3- A2 B | c c c (cd) e |
w: cow jumped o-ver the moon;_ The lit-tle dog laughed* To
%
   d2 B G A B | D2 D D E F | G3- G2 z |]
w: see such sport; And the dish ran aft-er the spoon.*
% - - - - - - - - - - - - - - -
